!!!OTL: "Vergeblich" DENK ICH ALLEWEIL
!!!ARE: Europa, Mitteleuropa, Deutschland, Franken
!!!SCT: Z1191
!!!YEM: Copyright 1995, estate of Helmut Schaffrath.
**kern
*ICvox
*Ivox
*M3/4
*k[f#]
*G:
{8g
8a
=1
4b
4b
8g
8a
=2
4b
4b}
{4dd
=3
4.dd
8cc
4b
=4
4a
4r}
{8g
8a
=5
4b
4b
8g
8a
=6
4b
4b}
{4dd
=7
4.dd
8cc
4b
=8
4a
4r}
{8a
8b
=9
4cc
4cc
8a
8cc
=10
4b
4b}
{8g
8b
=11
4.a
8g
4f#
=12
4g
4r}
==
!!!AGN: Liebes - Lied
!!!ONB: ESAC (Essen Associative Code) Database: ZUCCAL
!!!AMT: simple triple
!!!AIN: vox
!!!EED: Helmut Schaffrath
!!!EEV: 1.0
*-
